src/img/HomePage/Chopsticks/2LeftDown.svg

<?xml version="1.0" encoding="UTF-8"?> <svg xmlns="http://www.w3.org/2000/svg" width="110" height="112" viewBox="0 0 110 112" fill="none"> <path fill-rule="evenodd" clip-rule="evenodd" d="M14.1009 39.1963C9.89231 36.8317 5.25597 31.2308 4.10964 27.1253C2.7857 22.384 4.31231 14.8629 7.37107 11.0594C14.298 2.44631 28.4525 1.27378 38.3016 8.49643C48.7052 16.1251 49.6415 29.2832 40.3458 37.2086C33.5088 43.0372 22.4311 43.8762 14.1009 39.1963ZM15.7727 37.0778C8.76805 32.9722 5.34764 26.129 6.78937 19.1041C9.82236 4.32571 31.9357 1.69148 40.9489 15.0345C44.8858 20.8623 45.0153 26.2999 41.3486 31.8676C36.1731 39.7279 24.3886 42.1286 15.7727 37.0778ZM99.3004 36.2413C96.5929 32.6405 97.0347 29.3863 100.313 28.7895C105.755 27.7969 109.604 35.8618 104.961 38.5285C102.618 39.8733 101.776 39.5323 99.3004 36.2413Z" fill="#201B19"></path> <path d="M33.9948 94.67C34.0355 95.088 36.7428 98.7679 40.0132 102.847C43.2828 106.926 46.1805 110.24 46.453 110.211C47.7177 110.076 76.5327 90.9072 76.8336 90.0002C77.2328 88.795 66.4511 75.2944 64.791 74.9212C64.1711 74.782 58.4368 78.0824 52.0499 82.255C45.6621 86.4276 38.9698 90.7572 37.1786 91.8766C35.3873 92.9951 33.955 94.2518 33.9948 94.67Z" fill="#201B19"></path> </svg>

<svg xmlns="http://www.w3.org/2000/svg" width="110" height="112" fill="none"><path fill-rule="evenodd" clip-rule="evenodd" d="M14.1 39.196c-4.208-2.364-8.844-7.965-9.99-12.07-1.324-4.742.202-12.263 3.261-16.067 6.927-8.613 21.081-9.785 30.93-2.563 10.404 7.63 11.34 20.787 2.045 28.713-6.837 5.828-17.915 6.667-26.245 1.987Zm1.673-2.118C8.768 32.972 5.348 26.129 6.789 19.104c3.033-14.778 25.147-17.413 34.16-4.07 3.937 5.828 4.066 11.266.4 16.834-5.176 7.86-16.96 10.26-25.576 5.21ZM99.3 36.24c-2.707-3.6-2.265-6.855 1.013-7.451 5.442-.993 9.291 7.072 4.648 9.739-2.343 1.344-3.185 1.003-5.66-2.288Z" fill="#201B19"/><path d="M33.995 94.67c.04.418 2.748 4.098 6.018 8.177 3.27 4.079 6.168 7.393 6.44 7.364 1.265-.135 30.08-19.304 30.38-20.21.4-1.206-10.382-14.707-12.042-15.08-.62-.139-6.354 3.161-12.741 7.334-6.388 4.173-13.08 8.502-14.871 9.622-1.792 1.118-3.224 2.375-3.184 2.793Z" fill="#201B19"/></svg>
